X:1
T:The Up-To Date Flying Machine.
T:The Up-To Date Flying Machine.
T:Waltz Song.
T:Arr. by Wm J. CARLE
T:Words & Music by Geo. C. DAVIS
T:1904
T:1904
T:1904
T:1904
C:Arr. by Wm J. CARLE
Z:Words & Music by Geo. C. DAVIS
Z:1904
%%score 1 { 2 | 3 }
L:1/8
Q:1/4=114
M:3/4
K:Eb
V:1 treble nm="Voice"
V:2 treble nm="Piano"
V:3 bass 
V:1
"^Tempo di Valse." z2 | z6 | z6 | z6 | z6 | z6 | z6 | z6 | z6 ||[K:Eb] z4 z2 | z6 |:"^VOICE." EF | %12
w: |||||||||||You may|
w: ||||||||||||
w: |||||||||||As we're|
 G2 B2 c2 | G2 F2 E2 | G2 B2 c2 | G2 F2 E2 | E2 G2 c2 | B2 G2 E2 | (G6 | G2) z2 (FG) | F2 B2 c2 | %21
w: talk of your|trol- ly and|au- tos so|jol- ly and|bi- cyc les|made up for|two,|_ Though no|won- der- ful|
w: |||||||||
w: up near the|sky, soar- ing|air- i- ly|high, gaz- ing|straight at the|heav- en- ly|blue,|_ Wheth- er|star light or|
 A2 G2 (FF) | G2 A2 B2 | G2 F2 E2 | F2 =A2 c2 | (e2 d2) c2 | (B6 | B2) z2 (EF) | (G2 B2) c2 | %29
w: beau- ty she at-|tends to her|dut- ty knows|ex- act- ly|what * to|do,|_ As we're|sail- ing a|
w: ||||||||
w: moon light we *|turn on our|search lights our|path- way is|clear as the|dew,|_ We're *|brim- ful of|
 G2 F2 E2 | G2 B2 c2 | (G2 F2) E2 | E2 G2 c2 | B2 G2 E2 | (!tenuto!c6 | !tenuto!c2) z2 cd | %36
w: long, sing- ing|gai- ly a|song that we're|hap- py 'tis|plain to be|seen,|_ With a|
w: |||||||
w: mith, as we|gaze on the|earth, * *|all sorts of|sights there we|gleam,|_ Just as|
 e2 d2 c2 | B2 G2 B2 | e2 d2 c2 | (B2 B2) GG | F2 =A2 c2 | e2 d2 c2 | (B6 | B2) z2 z2 | %44
w: hug, kiss and|squeeze as we|sit at our|ease, * In our|up to date|fly- ing ma-|chine;||
w: ||||||||
w: hand- y as|cand- y, we|aren fine and|dand- y, In our|up to date|fly- ing ma-|chine;|_|
"^CHORUS." (G6 | B6) | (F6 | E6) | E2 A2 c2 | e2 d2 c2 | (B6 | B2) z2 z2 | A6 | B6 | G6 | E6 | %56
w: Sail-|ing,|sail-|ing|sail- ing a-|long through the|air,||Sail-|ing,|sail-|ing,|
w: ||||||||||||
w: ||||||||||||
 C2 D2 E2 | F2 (G2 E2) | (F6 | F2) z2 z2 | G6 | B6 | F6 | E4 E2 | E2 A2 c2 | e2 d2 c2 | B6 | %67
w: Stop at the|St. Louis _|Fair,|_|Sail-|ing,|sail-|ing, Our|ship is as|light as a|cork,|
w: |||||||||||
w: |||||||||||
 B2 z2 cd | e2 d2 c2 | B2 G2 B2 | e2 d2 c2 | B2 G2 e2 | %72
w: _ Though the|air is quite|breez- y, the|trip is quite|eas- y, from|
w: |||||
w: |||||
"_8--------------------------------------------------------------------" e2 e4 | f4 d2 |1 (e6 ||1 %75
w: Fris- co|to New|York.|
w: |||
w: |||
 e2) z2 z2 :|2 (e6 || e2) z2 |] %78
w: _|York.|_|
w: |||
w: |||
V:2
 [Ee][Ff] | [Gg]2 [Bb]2 [cc']2 | [Gg]2 [Ff]2 [Ee]2 | [Gg]2 [Bb]2 [cc']2 | [Gg]4 [Gg]2 | %5
 [Ff]2 [=A=a]2 [cc']2 | [ee']2 [Bb]2 [Aa]2 |!>(! [Bdfb]6!>)! | [DFAB]6 || %9
[K:Eb]!p! z2 [B,EG]2 [B,EG]2 | z2 [B,EG]2 [B,EG]2 |:!p! EF | (G2 B2 c2) | (B2 F2 E2) | (G2 B2 c2) | %15
 (G2 F2 E2) | (E2 G2 c2) | (B2 G2 E2) | G2 (^FG Be) | (B2 G2) (FG) | A2 B2 c2 | (A2 G2) FF | %22
 (G2 A2 B2) | (G2 F2) E2 | (F2 =A2 c2) | (e2 d2) c2 | B2 (=AB cd) | cB AF (EF) | (G2 B2 c2) | %29
 G2 F2 E2 | G2 B2 c2 | (G2 F2) E2 | (E2 G2 c2) | (B2 G2 E2) | c2 (CE AB | c2) z2 (cd) | %36
 (e2 d2 c2) | (B2 G2) B2 | (e2 d2 c2) | B4 (GG) | (F2 =A2 c2) | [F=Ae]2 [FAd]2 [EFc]2 | %42
 [DFB]2 (=AB df | [dfb]4) z2 | [Gg](G Be) (gG) | [Bb](B eg) (bB) | [Ee](E GB) (eE) | %47
 [Ee](E GB) (eE) | [Ee]2 [Aa]2 [cc']2 | [ee']2 [dd']2 [cc']2 | [Bb]([Bb] =ab c'b) | (c'b ag fe) | %52
 [cc'](B df) (bB) | [Gg](B df) (bB) | [Ee](E Gc) (eE) | [Gg](G Be) (gG) | [Ff]2 [Gg]2 [Ee]2 | %57
 [Ff]2 [Gg]2 [Ff]2 | [Ff]3 (b =ab) | (d'c' ba gf) | [Gg](G Be) (dG) | [Bb](B eg) (bB) | %62
 [Ff](A Bd) (fA) | [Ee](E GB) (eE) | [Ee]2 [Aa]2 [cc']2 | [ee']2 [dd']2 [cc']2 | [Bb](b =ab e'c') | %67
 b3 z ([cc'][dd']) | [ee']2 [dd']2 [cc']2 | [Bb]2 [Aa]2 [Bb]2 | [cc']2 [Bb]2 [Aa]2 | %71
 [Bb]2 [Bg]2 [Bb]2 | [Ee]2 [Ee]4 | [Ff]2 [Bd]2 [Dd]2 |1 !>![Ee]2 !>![Dd]2 !>![Cc]2 ||1 %75
 !>![B,B]2 !>![A,A]2 !>![F,F]2 :|2 [Ee]2 de gb || [ebe']2 z2 |] %78
V:3
 z2 | E,2 [G,B,E]2 [G,B,E]2 | B,,2 [G,B,E]2 [G,B,E]2 | E,2 [G,B,E]2 [G,B,E]2 | %4
 B,,2 [G,B,E]2 [G,B,E]2 | A,,2 [F,=A,D]2 [F,A,E]2 | F,,2 [F,=A,E]2 [F,A,E]2 | %7
 [B,,B,]2 [F,,F,]2 [D,,D,]2 | [B,,,B,,]2 !>!A,2 !>!F,2 ||[K:Eb] [E,,E,]2 z2 z2 | [B,,,B,,]6 |: z2 | %12
 E,2 [G,B,E]2 [G,B,E]2 | B,,2 [G,B,E]2 [G,B,]2 | E,2 [G,B,E]4 | B,,2 [G,B,]2 [G,B,]2 | %16
 E,2 [G,B,E]4 | B,,2 [G,B,]2 [G,B,]2 | E,2 [G,B,E]2 [G,B,E]2 | B,,2 [B,E]2 z2 | %20
 F,2 [A,B,D]2 [A,B,D]2 | B,,2 [A,B,D]2 [A,B,D]2 | E,2 [G,B,E]2 [G,B,E]2 | C,2 [E,G,C]2 [E,G,C]2 | %24
 C,2 [F,=B,E]2 [F,A,E]2 | F,,2 [F,=A,E]2 [F,A,E]2 | B,,2 [F,=A,D]2 [F,=A,D]2 | B,,2 [F,B,D]3 z | %28
 E,2 [G,B,E]2 [G,B,E]2 | B,,2 [G,B,]4 | E,2 [G,B,E]2 [G,B,E]2 | B,,2 [G,B,]4 | E,2 [G,B,E]4 | %33
 E,2 [G,B,_D]4 | A,,2 [E,A,]2 [E,A,C]2 | A,,2 [E,A,C]2 z2 | A,,2 [A,CF]2 [A,CF]2 | %37
 B,,2 [G,B,E]2 [G,B,E]2 | =A,,2 [=A,CE_G]4 | B,,2 [B,EG]4 | F,,2 [F,CE]2 [F,=A,E]2 | %41
 (F,2 G,2 =A,2) | G,2 [B,D]2 [B,D]2 | [A,,B,]2 [A,,A,]2 [D,,D,]2 | E,2 [G,B,E]2 [G,B,E]2 | %45
 B,,2 [G,B,E]2 [G,E]2 | B,,2 [A,B,D]2 [A,B,D]2 | E,2 [G,B,]2 [G,B,]2 | A,,2 [A,C]2 [A,C]2 | %49
 A,,2 [E,A,C]2 [E,A,]2 | E,2 [G,B,E]2 [G,B,E]2 | E,2 [G,B,E]2 [G,B,E]2 | F,,2 [A,B,D]2 [A,B,D]2 | %53
 B,,2 [A,B,D]2 [A,B,D]2 | E,2 [G,B,E]2 [G,B,E]2 | E,2 [E,G,C]2 [E,G,C]2 | C,2 [F,=A,C]2 [F,A,C]2 | %57
 F,,2 [F,=A,C]2 [F,A,C]2 | B,,2 [F,B,D]2 [F,B,D]2 | B,,2 [A,B,D]2 [A,B,D]2 | %60
 E,2 [G,B,E]2 [G,B,E]2 | A,,2 [G,B,E]2 [G,B,E]2 | B,,2 [A,B,D]2 [A,B,D]2 | E,2 [G,B,]2 [G,B,]2 | %64
 A,,2 [E,A,C]2 [E,A,C]2 | A,,2 [E,A,C]2 [E,A,C]2 | E,2 [G,B,E]2 [G,B,E]2 | E,2 [G,B,E]2 A,,2 | %68
 =A,,2 [=A,CGA]2 [A,CGA]2 | B,,2 [G,B,E]2 [G,B,E]2 | =A,,2 [=A,CGA]2 [A,CGA]2 | %71
 B,,2 [G,B,E]2 [G,B,E]2 | C,2 [F,=A,C]2 [F,A,C]2 | B,,2 [A,B,D]2 [A,B,D]2 |1 %74
 !>![E,E]2 !>![D,D]2 !>![C,C]2 ||1 !>![B,,B,]2 !>![A,,A,]2 !>![F,,F,]2 :|2 %76
 E,2 [D,D]2 !>![G,,G,]2 || !>![E,,E,]2 z2 |] %78

